logos/backup.svg

<?xml version="1.0" encoding="UTF-8" standalone="no"?>
<svg
   xmlns:dc="http://purl.org/dc/elements/1.1/"
   xmlns:cc="http://creativecommons.org/ns#"
   xmlns:rdf="http://www.w3.org/1999/02/22-rdf-syntax-ns#"
   xmlns:svg="http://www.w3.org/2000/svg"
   xmlns="http://www.w3.org/2000/svg"
   xmlns:sodipodi="http://sodipodi.sourceforge.net/DTD/sodipodi-0.dtd"
   xmlns:inkscape="http://www.inkscape.org/namespaces/inkscape"
   id="eyv3u7fozktn1"
   viewBox="0 0 769 769"
   width="500"
   height="500"
   shape-rendering="geometricPrecision"
   text-rendering="geometricPrecision"
   version="1.1"
   sodipodi:docname="backup.svg"
   inkscape:version="0.92.4 (5da689c313, 2019-01-14)">
  <metadata
     id="metadata16">
    <rdf:RDF>
      <cc:Work
         rdf:about="">
        <dc:format>image/svg+xml</dc:format>
        <dc:type
           rdf:resource="http://purl.org/dc/dcmitype/StillImage" />
        <dc:title></dc:title>
      </cc:Work>
    </rdf:RDF>
  </metadata>
  <defs
     id="defs14" />
  <sodipodi:namedview
     pagecolor="#ffffff"
     bordercolor="#666666"
     borderopacity="1"
     objecttolerance="10"
     gridtolerance="10"
     guidetolerance="10"
     inkscape:pageopacity="0"
     inkscape:pageshadow="2"
     inkscape:window-width="732"
     inkscape:window-height="480"
     id="namedview12"
     showgrid="false"
     inkscape:zoom="0.30689207"
     inkscape:cx="384.5"
     inkscape:cy="384.5"
     inkscape:window-x="0"
     inkscape:window-y="0"
     inkscape:window-maximized="0"
     inkscape:current-layer="eyv3u7fozktn1" />
  <style
     id="style2"><![CDATA[#eyv3u7fozktn1{pointer-events: all} #eyv3u7fozktn1:hover * {animation-play-state: running !important}#eyv3u7fozktn4_tr {animation: eyv3u7fozktn4_tr__tr 9000ms linear infinite normal forwards}@keyframes eyv3u7fozktn4_tr__tr { 0% {transform: translate(383.551353px,385.435974px) rotate(0deg)} 90% {transform: translate(383.551353px,385.435974px) rotate(-720deg)} 100% {transform: translate(383.551353px,385.435974px) rotate(0deg)} }]]></style>
  <g
     id="eyv3u7fozktn2"
     transform="matrix(4 0 0 4 -897.23999024499994 -2361.36645508499987)">
    <path
       id="eyv3u7fozktn3"
       d="M416.090000,686.720000C416.090000,710.780000,416.090000,734.850000,416.090000,758.910000C416.090000,769.940000,407.770000,780.020000,396.910000,782.090000C395.300000,782.400000,393.640000,782.570000,392.010000,782.570000C344.040000,782.600000,296.080000,782.590000,248.110000,782.590000C236.350000,782.590000,226.090000,773.570000,224.550000,761.870000C224.410000,760.840000,224.320000,759.790000,224.320000,758.750000C224.310000,710.660000,224.310000,662.570000,224.310000,614.490000C224.310000,603.460000,232.630000,593.370000,243.490000,591.310000C245.100000,591,246.760000,590.830000,248.390000,590.830000C296.400000,590.810000,344.410000,590.810000,392.410000,590.810000C403.440000,590.810000,413.540000,599.140000,415.590000,609.990000C415.890000,611.600000,416.070000,613.260000,416.070000,614.890000C416.100000,638.840000,416.090000,662.780000,416.090000,686.720000Z"
       fill="#ffcb28"
       stroke="none"
       stroke-width="1" />
  </g>
  <g
     id="eyv3u7fozktn4_tr"
     transform="translate(383.551353,385.435974) rotate(0)">
    <g
       id="eyv3u7fozktn4"
       transform="scale(4,4) translate(-320.188927,-686.700012)">
      <g
         id="eyv3u7fozktn5">
        <path
           id="eyv3u7fozktn6"
           d="M286.510000,678.460000C286.270000,678.460000,286.030000,678.450000,285.780000,678.440000C281.860000,678.270000,277.610000,678.190000,272.390000,678.190000C269.260000,678.190000,266.140000,678.220000,263.010000,678.240000C259.870000,678.270000,256.720000,678.290000,253.580000,678.290000L251.460000,678.290000C241.820000,678.250000,235.820000,672.140000,235.810000,662.360000C235.790000,651.010000,235.790000,639.650000,235.810000,628.300000C235.820000,619.360000,241.860000,612.580000,250.170000,612.170000C250.420000,612.160000,250.670000,612.150000,250.920000,612.150000C257.640000,612.150000,263.060000,616.690000,264.930000,623.540000C273.800000,615.790000,283.520000,610.150000,294.490000,606.370000C303.150000,603.390000,312.230000,601.880000,321.490000,601.880000C355.750000,601.880000,387.270000,622.450000,399.920000,653.070000C401.720000,657.420000,401.820000,661.900000,400.200000,665.680000C398.710000,669.170000,395.790000,671.910000,391.990000,673.390000C390.120000,674.120000,388.230000,674.480000,386.350000,674.480000C380.480000,674.480000,375.350000,670.850000,372.610000,664.770000C366.670000,651.570000,357.370000,642.240000,344.180000,636.240000C337.550000,633.230000,329.950000,631.630000,322.220000,631.630000C306.220000,631.630000,291.130000,638.110000,281.470000,648.840000C281.470000,648.840000,284.730000,648.840000,286.060000,648.830000C295.640000,648.830000,301.960000,654.540000,302.230000,663.370000C302.340000,667.140000,300.890000,670.780000,298.150000,673.600000C295.160000,676.700000,290.920000,678.460000,286.510000,678.460000Z"
           fill="#01507b"
           stroke="none"
           stroke-width="1" />
        <path
           id="eyv3u7fozktn7"
           d="M321.930000,771.520000C288.010000,771.520000,256.510000,750.850000,243.540000,720.080000C240.420000,712.670000,242.680000,705.040000,249.180000,701.070000C251.530000,699.630000,254.220000,698.880000,256.940000,698.880000C261.440000,698.880000,265.640000,700.910000,268.470000,704.450000C269.470000,705.700000,270.140000,707.110000,270.730000,708.350000C270.890000,708.700000,271.060000,709.040000,271.230000,709.380000C281.680000,730.240000,298.490000,741.120000,321.180000,741.730000C321.710000,741.740000,322.250000,741.750000,322.770000,741.750000C337.170000,741.750000,349.820000,736.480000,360.440000,726.060000C359.680000,726.060000,358.920000,726.060000,358.160000,726.060000C356.460000,726.060000,354.780000,726.050000,353.090000,726.030000C344.390000,725.910000,338.110000,719.590000,338.170000,711C338.230000,702.860000,344.540000,696.670000,352.850000,696.610000C359.250000,696.560000,365.820000,696.530000,372.390000,696.530000C378.160000,696.530000,383.920000,696.550000,389.690000,696.590000C398.250000,696.640000,404.490000,703.030000,404.540000,711.770000C404.610000,724.030000,404.580000,736.400000,404.550000,747.030000C404.520000,755.570000,398.960000,761.870000,390.720000,762.710000C390.270000,762.760000,389.820000,762.780000,389.370000,762.780000C383.320000,762.780000,378.060000,758.760000,375.820000,752.710000C374.460000,753.540000,373.110000,754.370000,371.780000,755.200000C366.500000,758.470000,361.040000,761.860000,355.240000,764.450000C344.760000,769.140000,333.550000,771.520000,321.930000,771.520000Z"
           fill="rgb(255,255,255)"
                stroke="#01507b"
                stroke-width="7"
                stroke-miterlimit="10" />
      </g>
    </g>
  </g>
</svg>

<svg xmlns="http://www.w3.org/2000/svg" id="backup" viewBox="0 0 769 769" width="500" height="500" shape-rendering="geometricPrecision" text-rendering="geometricPrecision" version="1.1">
  <style id="spin">
    @keyframes arrow_animation_group__tr{0%,to{transform:translate(383.551353px,385.435974px) rotate(0deg)}90%{transform:translate(383.551353px,385.435974px) rotate(-720deg)}}#arrow_animation_group{animation:arrow_animation_group__tr 5000ms linear infinite normal forwards}
  </style>
  <g id="background" transform="matrix(4 0 0 4 -897.24 -2361.366)">
    <path id="square" d="M416.09 686.72v72.19c0 11.03-8.32 21.11-19.18 23.18-1.61.31-3.27.48-4.9.48-47.97.03-95.93.02-143.9.02-11.76 0-22.02-9.02-23.56-20.72a23.27 23.27 0 01-.23-3.12c-.01-48.09-.01-96.18-.01-144.26 0-11.03 8.32-21.12 19.18-23.18 1.61-.31 3.27-.48 4.9-.48 48.01-.02 96.02-.02 144.02-.02 11.03 0 21.13 8.33 23.18 19.18.3 1.61.48 3.27.48 4.9.03 23.95.02 47.89.02 71.83z" fill="#D52727" stroke="none" stroke-width="1"/>
  </g>
  <g id="arrow_animation_group" transform="translate(383.551 385.436)">
    <g id="arrow_center" transform="matrix(4 0 0 4 -1280.756 -2746.8)">
      <g id="arrow_group" fill="#FFF" stroke="none" stroke-width="1">
        <path id="arrow1" d="M286.51 678.46c-.24 0-.48-.01-.73-.02-3.92-.17-8.17-.25-13.39-.25-3.13 0-6.25.03-9.38.05-3.14.03-6.29.05-9.43.05h-2.12c-9.64-.04-15.64-6.15-15.65-15.93-.02-11.35-.02-22.71 0-34.06.01-8.94 6.05-15.72 14.36-16.13.25-.01.5-.02.75-.02 6.72 0 12.14 4.54 14.01 11.39 8.87-7.75 18.59-13.39 29.56-17.17 8.66-2.98 17.74-4.49 27-4.49 34.26 0 65.78 20.57 78.43 51.19 1.8 4.35 1.9 8.83.28 12.61-1.49 3.49-4.41 6.23-8.21 7.71-1.87.73-3.76 1.09-5.64 1.09-5.87 0-11-3.63-13.74-9.71-5.94-13.2-15.24-22.53-28.43-28.53-6.63-3.01-14.23-4.61-21.96-4.61-16 0-31.09 6.48-40.75 17.21 0 0 3.26 0 4.59-.01 9.58 0 15.9 5.71 16.17 14.54.11 3.77-1.34 7.41-4.08 10.23-2.99 3.1-7.23 4.86-11.64 4.86z"/>
        <path id="arrow2" d="M321.93 771.52c-33.92 0-65.42-20.67-78.39-51.44-3.12-7.41-.86-15.04 5.64-19.01 2.35-1.44 5.04-2.19 7.76-2.19 4.5 0 8.7 2.03 11.53 5.57 1 1.25 1.67 2.66 2.26 3.9.16.35.33.69.5 1.03 10.45 20.86 27.26 31.74 49.95 32.35.53.01 1.07.02 1.59.02 14.4 0 27.05-5.27 37.67-15.69h-2.28c-1.7 0-3.38-.01-5.07-.03-8.7-.12-14.98-6.44-14.92-15.03.06-8.14 6.37-14.33 14.68-14.39 6.4-.05 12.97-.08 19.54-.08 5.77 0 11.53.02 17.3.06 8.56.05 14.8 6.44 14.85 15.18.07 12.26.04 24.63.01 35.26-.03 8.54-5.59 14.84-13.83 15.68-.45.05-.9.07-1.35.07-6.05 0-11.31-4.02-13.55-10.07-1.36.83-2.71 1.66-4.04 2.49-5.28 3.27-10.74 6.66-16.54 9.25-10.48 4.69-21.69 7.07-33.31 7.07z"/>
      </g>
    </g>
  </g>
</svg>
